X:12134
T:O Straßburg...
R:Volksweise
O:France
S:source
B:Frau Nachtigall (Straßburg - 1928)
Z:<anamnese@caramail.com> -- http://anamnese.fr.st
N:p.5
M:C
L:1/4
Q:1/4=150
K:G
{D/}D{D/} | "G"{G}G2{G} BG | "D"A2cA | "G"BGdB | "D"A2 z (A/ B/) |:
"C"cc e/ -e/ c | "G"B2 dB | "D"AAcA |1 "G"(GBd) B/ -B/ :|2 "G"G2 z |]
W:O Straßburg, o Straßburg, du wunderschöne Stadt, 
W:darinen liegt begaben so manicher Soldat (2x)


